X:164
T:Nothing else to do - Nichols
%%VWML:SBG-1-2-435-0
F:http://www.vwml.org/record/SBG/1/2/435
Z:Original Sibelius transcriptions by M. & S. Graebe
M:4/4
I:linebreak $
K:C
V:1 treble nm="P1"
V:1
 Gc | e2 ee e2 dc | c2 BA G2 d2 | g2 gg g2 dc | B2 AG G2 | e2 |$ e2 dc B2 Af | %7
 fe dc e!fermata!d c2 | c2 cc fffe | dcBA (GABG) |$ cccc c4 | dcde f3 g | g2 ec ffdc | %13
 BB Bc c2 x2 | %14
T:Nothing else to do - Edinburgh
F:http://www.vwml.org/record/SBG/1/2/435
Z:Original Sibelius transcriptions by M. & S. Graebe
L:1/8
M:6/4
I:linebreak $
K:Bb
V:1 treble nm="P1"
V:2 treble 
L:1/4
V:1
 F2 | B3 d c2 B2 F2 D2 | EF G2 G2 G4 A2 | B3 c d2 e4 cB | A2 A2 G4 c2 |$ c3 d c2 c2 f2 c2 | %6
 c3 B A2 G4 G2 | A3 B c2 d4 BA | G3 F =E2 F4 z F |$ F3 G E2 D2 F2 B2 | A3 B G2 ^F4 dc | %11
 B3 A G2 A3 e d2 | c2 B A2 G4 A2 |$ B3 c B2 F3 D F2 | c3 d B2 A4 c2 | e3 c d2 c4 ce |$ %16
 d2 B2 A2 G4 cd | e2 c2 B2 !fermata!A4 c2 | d3 c d2 G4 AB | c3 B A2 B2 z2 x2 :| %20
V:2
 x | x6 | x6 | x6 | F F F2 G |$ x x x x3 | x6 | x6 | x6 |$ x6 | x6 | x6 | x11/2 |$ x6 | x6 | x6 |$ %16
 x6 | x6 | x6 | x6 :| %20
T:Nothing else to do - Mrs Vaisey
F:http://www.vwml.org/record/SBG/1/2/435
Z:Original Sibelius transcriptions by M. & S. Graebe
M:3/4
I:linebreak $
K:F
V:1 treble nm="P1"
V:1
 D | F/(A/ A) G | F/(A/ A) G | F/E/ F D | (C2 C) | B B B | B/(A/ G) F | A F3/2 F/ | F2 |$ F | %10
 G G A | G/(F/ E) G | F/E/ F D | C2 (G/A/) | B3/2 B/ B | A2 G/F/ | (F/A/) c E | F3 | %18
T:Nothing else to do - 2 Miss Hamleys
F:http://www.vwml.org/record/SBG/1/2/435
Z:Original Sibelius transcriptions by M. & S. Graebe
M:2/4
I:linebreak $
K:A
V:1 treble nm="P1"
V:1
 E | A2 A3/2 A/ | A2 c B | A3/2 F/ F2 | F2 z F | B2 B3/2 B/ | (B<A) B | c2 A3/2 A/ | A2 z A |$ %9
 (c<A) c | (cB) B B | (AG) (AF) | FE3/2 C/ C/ | D/ D3/2 (EF) | F2 F F | (FE) (AC) | (CB,) z2 |$ %17
 (C<E) E3/2 F/ | E4 | (E<A) A3/2 B/ | A4 | A2 (Bc) | d2 (dc) | (B<A) B3/2 c/ | A4 | %25
T:Nothing else to do - Clio & Euterpe
F:http://www.vwml.org/record/SBG/1/2/435
Z:Original Sibelius transcriptions by M. & S. Graebe
M:4/4
I:linebreak $
K:F
V:1 treble nm="P1"
V:1
 c2 | A2 GF c2 c2 | d2 f<d c3 c | dc BA G2 c>B | A2 F2 F3 c2 | A2 GF c2 c2 |$ d2 fd c3 e | %7
 f2 a<f d2 g>f | e2 c2 c3 c | f3 g a2 gf | g2 c2 c3 A |$ d3 e f2 ed | c2 A2 A3 c | F3 G A3 c | %14
 dc BA G2 c2 | f3 c f3 A |$ B c d B2 G3 B | A B c A2 F3 c | f2 z c !fermata!f2 z d | %19
 c B A G F2 z2 z | %20

